X: 20071
M: 6/8
L: 1/8
K: F
V: 1 staves=3
V: 2
E |\
V: 3 clef=bass middle=d
f |\
f2c c2f | f3 c3 | f3 c3 | c3 c3 |\
f2c c2f | f3 c3 | f3 c3 | f3- f2 |]
c |\
f3 f3 | c3 c3 | f3 f3 | d3 c3 |\
f3 d3 | c3 c3 | f3 f3 | c3 f2 |]


